assets/img/braze_icons/star-03.svg

<svg fill="none" height="24" viewBox="0 0 24 24" width="24" xmlns="http://www.w3.org/2000/svg"><path d="m12.6344 1.72522c-.4021-.18766-.8666-.18766-1.2687 0-.3442.16062-.539.438-.6396.59486-.1019.15886-.2067.36057-.3075.55475l-1.45981 2.80987-3.10699-.61059c-.21468-.04224-.43771-.08612-.62545-.10549-.18538-.01913-.52371-.03977-.86387.12916-.39743.19737-.68707.56057-.79105.99194-.089.36923.0064.69449.0663.87096.06066.17872.15307.38639.24202.58628l1.28665 2.89324-2.41454 2.0484c-.16688.1416-.34024.2886-.47245.4233-.13054.133-.35762.3846-.43763.7559-.09348.4338.00989.8867.28232 1.2369.23318.2998.54696.428.72228.4912.17756.064.39753.1213.60928.1764l3.06423.7979.09609 3.165c.00659.2187.01344.4459.03633.6332.0226.185.07777.5195.31816.8135.28085.3435.6994.5451 1.1431.5505.37977.0046.67564-.1608.83436-.2585.16073-.0989.34261-.2352.51769-.3663l2.53448-1.8983 2.5343 1.8982c.1751.1312.357.2675.5178.3664.1587.0977.4546.2631.8343.2585.4437-.0054.8623-.207 1.1431-.5505.2404-.294.2956-.6285.3182-.8135.0229-.1873.0297-.4145.0363-.6332l.0961-3.165 3.0643-.7979c.2117-.0551.4317-.1124.6092-.1764.1753-.0632.4891-.1914.7223-.4912.2724-.3502.3758-.8031.2823-1.2369-.08-.3713-.3071-.6229-.4376-.7559-.1322-.1347-.3056-.2817-.4724-.4232l-2.4146-2.0485 1.2866-2.89318c.089-.19992.1814-.4076.2421-.58634.0599-.17648.1553-.50173.0663-.87096-.104-.43137-.3937-.79457-.7911-.99194-.3401-.16893-.6785-.14829-.8638-.12916-.1878.01937-.4108.06325-.6255.10549l-3.107.61059-1.4598-2.80987c-.1008-.19418-.2056-.39589-.3075-.55475-.1006-.15686-.2954-.43424-.6396-.59486z" fill="#801ed7"/></svg>

<svg width="24" height="24" viewBox="0 0 24 24" fill="none" xmlns="http://www.w3.org/2000/svg">
<path d="M12.6344 1.72522C12.2323 1.53756 11.7678 1.53756 11.3657 1.72522C11.0215 1.88584 10.8267 2.16322 10.7261 2.32008C10.6242 2.47894 10.5194 2.68065 10.4186 2.87483L8.95879 5.6847L5.8518 5.07411C5.63712 5.03187 5.41409 4.98799 5.22635 4.96862C5.04097 4.94949 4.70264 4.92885 4.36248 5.09778C3.96505 5.29515 3.67541 5.65835 3.57143 6.08972C3.48243 6.45895 3.57783 6.78421 3.63773 6.96068C3.69839 7.1394 3.7908 7.34707 3.87975 7.54696L5.1664 10.4402L2.75186 12.4886C2.58498 12.6302 2.41162 12.7772 2.27941 12.9119C2.14887 13.0449 1.92179 13.2965 1.84178 13.6678C1.7483 14.1016 1.85167 14.5545 2.1241 14.9047C2.35728 15.2045 2.67106 15.3327 2.84638 15.3959C3.02394 15.4599 3.24391 15.5172 3.45566 15.5723L6.51989 16.3702L6.61598 19.5352C6.62257 19.7539 6.62942 19.9811 6.65231 20.1684C6.67491 20.3534 6.73008 20.6879 6.97047 20.9819C7.25132 21.3254 7.66987 21.527 8.11357 21.5324C8.49334 21.537 8.78921 21.3716 8.94793 21.2739C9.10866 21.175 9.29054 21.0387 9.46562 20.9076L12.0001 19.0093L14.5344 20.9075C14.7095 21.0387 14.8914 21.175 15.0522 21.2739C15.2109 21.3716 15.5068 21.537 15.8865 21.5324C16.3302 21.527 16.7488 21.3254 17.0296 20.9819C17.27 20.6879 17.3252 20.3534 17.3478 20.1684C17.3707 19.9811 17.3775 19.7539 17.3841 19.5352L17.4802 16.3702L20.5445 15.5723C20.7562 15.5172 20.9762 15.4599 21.1537 15.3959C21.329 15.3327 21.6428 15.2045 21.876 14.9047C22.1484 14.5545 22.2518 14.1016 22.1583 13.6678C22.0783 13.2965 21.8512 13.0449 21.7207 12.9119C21.5885 12.7772 21.4151 12.6302 21.2483 12.4887L18.8337 10.4402L20.1203 7.54702C20.2093 7.3471 20.3017 7.13942 20.3624 6.96068C20.4223 6.7842 20.5177 6.45895 20.4287 6.08972C20.3247 5.65835 20.035 5.29515 19.6376 5.09778C19.2975 4.92885 18.9591 4.94949 18.7738 4.96862C18.586 4.98799 18.363 5.03187 18.1483 5.07411L15.0413 5.6847L13.5815 2.87483C13.4807 2.68065 13.3759 2.47894 13.274 2.32008C13.1734 2.16322 12.9786 1.88584 12.6344 1.72522Z" fill="#801ED7"/>
</svg>
